X: 10351
M: 2/4
L: 1/16
K: G
|:\
vB2d2 {f}edeg | d2b2 (c'3b) | d2a2 (b3a) | d2g2a2g2 |\
|:[K:D]\
vA2a2 G2a2 | F2a2 {g}fef2 | A2a2 {f}e^de2 | (A2a2) {g}fef2 |\
|:[K:C]\
(v.c'3.b) ag^fg | a2g2 gfe2 | g2f2 fed | f2e2 edc |\
(.c'3.b) ag^fg | a2g2 gfe2 | g2f2 fed2 | c2e2c2z2 "_D.C.":|


